_inc/logos/setup.svg

<?xml version="1.0" encoding="UTF-8" standalone="no"?>
<svg
   version="1.1"
   id="svg8"
   sodipodi:docname="setup.svg"
   width="264"
   height="36"
   inkscape:version="1.1.2 (0a00cf5339, 2022-02-04, custom)"
   inkscape:export-filename="C:\Users\miche\Desktop\setup.png"
   inkscape:export-xdpi="1920"
   inkscape:export-ydpi="1920"
   xmlns:inkscape="http://www.inkscape.org/namespaces/inkscape"
   xmlns:sodipodi="http://sodipodi.sourceforge.net/DTD/sodipodi-0.dtd"
   xmlns="http://www.w3.org/2000/svg"
   xmlns:svg="http://www.w3.org/2000/svg">
  <defs
     id="defs12" />
  <sodipodi:namedview
     id="namedview10"
     pagecolor="#ffffff"
     bordercolor="#666666"
     borderopacity="1.0"
     inkscape:pageshadow="2"
     inkscape:pageopacity="0.0"
     inkscape:pagecheckerboard="0"
     showgrid="false"
     inkscape:zoom="3.5633333"
     inkscape:cx="150"
     inkscape:cy="74.929841"
     inkscape:window-width="1920"
     inkscape:window-height="1017"
     inkscape:window-x="-8"
     inkscape:window-y="-8"
     inkscape:window-maximized="1"
     inkscape:current-layer="svg8" />
  <path
     d="m 35.518,34.583 3.031,-8.988 c 3.032,0.835 5.81,1.253 8.336,1.253 2.526,0 4.565,-0.109 6.117,-0.327 l 0.433,-2.724 -4.493,-0.435 c -3.428,-0.327 -5.858,-1.108 -7.289,-2.343 -1.42,-1.235 -2.129,-2.978 -2.129,-5.23 0,-0.981 0.108,-2.07 0.325,-3.268 0.83,-4.649 2.333,-7.845 4.51,-9.588 2.189,-1.743 5.576,-2.615 10.159,-2.615 4.583,0 8.624,0.454 12.125,1.362 l -2.815,8.716 C 60.689,9.851 58.162,9.579 56.25,9.579 c -1.913,0 -3.537,0.091 -4.872,0.272 l -0.433,2.67 3.627,0.381 c 3.681,0.4 6.297,1.283 7.849,2.651 1.551,1.357 2.327,3.178 2.327,5.466 0,2.324 -0.505,4.721 -1.515,7.19 -0.506,1.272 -1.06,2.337 -1.66,3.197 -0.59,0.847 -1.348,1.567 -2.274,2.161 -0.915,0.604 -1.75,1.058 -2.508,1.361 -0.758,0.314 -1.714,0.546 -2.869,0.691 C 52.226,35.872 50.151,36 47.697,36 43.223,36 39.163,35.528 35.518,34.583 Z M 91.813,14.427 90.406,22.326 H 80.121 l -0.704,4.14 H 92.03 l -1.516,8.717 H 67.617 L 73.571,1.135 H 96.198 L 93.383,9.851 H 82.286 l -0.758,4.576 z m 33.182,-13.292 -1.57,8.716 h -7.47 l -4.384,25.332 H 101.286 L 105.67,9.851 h -7.415 l 1.569,-8.716 z m 27.065,0 -1.57,8.716 h -7.47 l -4.385,25.332 h -10.284 l 4.384,-25.332 h -7.416 l 1.57,-8.716 z m 8.227,34.048 h -10.284 l 5.954,-34.048 h 10.285 z m 34.968,0 h -9.689 l -5.521,-12.094 c -0.145,-0.255 -0.217,-0.612 -0.217,-1.072 0,-0.448 0.036,-0.962 0.108,-1.543 h -0.433 l -2.544,14.709 h -10.284 l 5.954,-34.048 h 9.689 l 5.521,12.094 c 0.109,0.254 0.163,0.612 0.163,1.071 0,0.449 -0.036,0.962 -0.108,1.544 h 0.433 l 2.598,-14.709 h 10.284 z m 25.279,-10.024 0.27,-1.471 h -2.598 l 1.462,-8.334 h 12.395 L 228.87,33.548 C 224.467,35.183 220.047,36 215.608,36 c -4.439,0 -7.645,-0.89 -9.617,-2.67 -1.961,-1.779 -2.941,-4.521 -2.941,-8.225 0,-1.562 0.252,-3.868 0.758,-6.919 1.082,-6.32 2.995,-10.878 5.737,-13.673 2.743,-2.797 7.29,-4.195 13.641,-4.195 1.335,0 3.037,0.145 5.106,0.436 2.081,0.29 3.609,0.617 4.583,0.98 l -2.977,8.335 c -2.706,-0.508 -5.191,-0.763 -7.452,-0.763 -2.25,0 -3.861,0.182 -4.835,0.545 -0.975,0.363 -1.552,1.09 -1.732,2.18 l -2.653,15.416 h 3.41 c 1.227,0 2.135,-0.132 2.725,-0.4 0.601,-0.278 0.992,-0.908 1.173,-1.888 z m 12.341,9.424 3.032,-8.988 c 3.031,0.835 5.81,1.253 8.336,1.253 2.526,0 4.565,-0.109 6.116,-0.327 l 0.433,-2.724 -4.492,-0.435 c -3.429,-0.327 -5.859,-1.108 -7.29,-2.343 -1.42,-1.235 -2.129,-2.978 -2.129,-5.23 0,-0.981 0.108,-2.07 0.325,-3.268 0.83,-4.649 2.333,-7.845 4.511,-9.588 2.188,-1.743 5.575,-2.615 10.158,-2.615 4.583,0 8.625,0.454 12.125,1.362 l -2.815,8.716 c -3.139,-0.545 -5.665,-0.817 -7.578,-0.817 -1.913,0 -3.536,0.091 -4.872,0.272 l -0.433,2.67 3.627,0.381 c 3.681,0.4 6.297,1.283 7.849,2.651 1.552,1.357 2.327,3.178 2.327,5.466 0,2.324 -0.505,4.721 -1.515,7.19 -0.505,1.272 -1.059,2.337 -1.66,3.197 -0.59,0.847 -1.348,1.567 -2.274,2.161 -0.914,0.604 -1.75,1.058 -2.508,1.361 -0.757,0.314 -1.714,0.546 -2.868,0.691 -1.697,0.253 -3.772,0.381 -6.225,0.381 -4.475,0 -8.535,-0.472 -12.18,-1.417 z"
     style="white-space:pre;fill:#ffffff"
     id="path2" />
  <path
     d="M 26.074,24.253 V 21.106 L 23.236,20.057 C 22.989,19.095 22.659,18.19 22.168,17.354 l 0.029,-0.004 1.349,-2.831 -2.204,-2.224 -2.81,1.348 -0.003,0.004 C 17.7,13.153 16.8,12.84 15.846,12.591 L 14.804,9.706 h -3.128 l -1.041,2.885 C 9.678,12.84 8.778,13.187 7.95,13.681 L 7.944,13.659 5.132,12.302 2.921,14.523 4.26,17.352 4.264,17.356 C 3.773,18.19 3.287,19.097 3.04,20.059 L 0,21.106 v 3.147 l 3.04,1.049 c 0.247,0.961 0.681,1.869 1.171,2.702 l 0.022,0.004 -1.324,2.831 2.217,2.226 2.817,-1.347 0.005,-0.003 c 0.828,0.492 1.73,0.953 2.685,1.201 l 1.043,3.033 h 3.128 l 1.042,-3.033 c 0.956,-0.248 1.856,-0.67 2.684,-1.164 l 0.006,-0.014 2.813,1.336 2.21,-2.23 -1.339,-2.834 -0.003,-0.004 c 0.49,-0.835 0.772,-1.743 1.019,-2.704 z M 13.24,27.925 c -2.878,0 -5.213,-2.348 -5.213,-5.245 0,-2.896 2.335,-5.246 5.213,-5.246 2.88,0 5.213,2.35 5.213,5.246 0,2.897 -2.333,5.245 -5.213,5.245 z"
     style="fill:#ffffff"
     id="path4" />
  <path
     d="M 36.07,5.237 35.386,3.576 33.616,3.664 C 33.277,3.21 32.884,2.815 32.444,2.483 L 32.445,2.479 32.539,0.69 30.888,0 29.696,1.331 V 1.334 C 29.151,1.257 28.591,1.251 28.034,1.331 L 26.841,0 25.19,0.688 25.282,2.477 c -0.449,0.341 -0.841,0.742 -1.173,1.185 l -0.001,-10e-4 -1.779,-0.092 -0.682,1.66 1.32,1.199 0.004,0.002 c -0.063,0.514 -0.09,1.115 -0.011,1.677 l -1.332,1.203 0.684,1.662 1.787,-0.097 c 0.339,0.454 0.741,0.847 1.181,1.179 v 0.004 l -0.09,1.788 1.81,0.688 1.35,-1.331 V 13.2 c 0.35,0.065 0.947,0.081 1.504,0.003 l 1.114,1.331 1.611,-0.688 -0.112,-1.788 c 0.451,-0.341 0.834,-0.743 1.164,-1.186 l -0.002,10e-4 1.775,0.092 L 36.087,9.303 34.764,8.105 34.76,8.103 C 34.838,7.554 34.834,6.994 34.757,6.434 Z m -6.066,4.8 c -1.519,0.631 -3.26,-0.094 -3.89,-1.624 -0.63,-1.529 0.092,-3.281 1.611,-3.915 1.521,-0.633 3.262,0.092 3.892,1.622 0.628,1.531 -0.094,3.283 -1.613,3.917 z"
     style="fill:#ffffff"
     id="path6" />
</svg>

<?xml version="1.0" encoding="utf-8"?>
<svg xmlns="http://www.w3.org/2000/svg">
  <path d="M 35.518 34.583 L 38.549 25.595 C 41.581 26.43 44.359 26.848 46.885 26.848 C 49.411 26.848 51.45 26.739 53.002 26.521 L 53.435 23.797 L 48.942 23.362 C 45.514 23.035 43.084 22.254 41.653 21.019 C 40.233 19.784 39.524 18.041 39.524 15.789 C 39.524 14.808 39.632 13.719 39.849 12.521 C 40.679 7.872 42.182 4.676 44.359 2.933 C 46.548 1.19 49.935 0.318 54.518 0.318 C 59.101 0.318 63.142 0.772 66.643 1.68 L 63.828 10.396 C 60.689 9.851 58.162 9.579 56.25 9.579 C 54.337 9.579 52.713 9.67 51.378 9.851 L 50.945 12.521 L 54.572 12.902 C 58.253 13.302 60.869 14.185 62.421 15.553 C 63.972 16.91 64.748 18.731 64.748 21.019 C 64.748 23.343 64.243 25.74 63.233 28.209 C 62.727 29.481 62.173 30.546 61.573 31.406 C 60.983 32.253 60.225 32.973 59.299 33.567 C 58.384 34.171 57.549 34.625 56.791 34.928 C 56.033 35.242 55.077 35.474 53.922 35.619 C 52.226 35.872 50.151 36 47.697 36 C 43.223 36 39.163 35.528 35.518 34.583 Z M 91.813 14.427 L 90.406 22.326 L 80.121 22.326 L 79.417 26.466 L 92.03 26.466 L 90.514 35.183 L 67.617 35.183 L 73.571 1.135 L 96.198 1.135 L 93.383 9.851 L 82.286 9.851 L 81.528 14.427 L 91.813 14.427 Z M 124.995 1.135 L 123.425 9.851 L 115.955 9.851 L 111.571 35.183 L 101.286 35.183 L 105.67 9.851 L 98.255 9.851 L 99.824 1.135 L 124.995 1.135 Z M 152.06 1.135 L 150.49 9.851 L 143.02 9.851 L 138.635 35.183 L 128.351 35.183 L 132.735 9.851 L 125.319 9.851 L 126.889 1.135 L 152.06 1.135 Z M 160.287 35.183 L 150.003 35.183 L 155.957 1.135 L 166.242 1.135 L 160.287 35.183 Z M 195.255 35.183 L 185.566 35.183 L 180.045 23.089 C 179.9 22.834 179.828 22.477 179.828 22.017 C 179.828 21.569 179.864 21.055 179.936 20.474 L 179.503 20.474 L 176.959 35.183 L 166.675 35.183 L 172.629 1.135 L 182.318 1.135 L 187.839 13.229 C 187.948 13.483 188.002 13.841 188.002 14.3 C 188.002 14.749 187.966 15.262 187.894 15.844 L 188.327 15.844 L 190.925 1.135 L 201.209 1.135 L 195.255 35.183 Z M 220.534 25.159 L 220.804 23.688 L 218.206 23.688 L 219.668 15.354 L 232.063 15.354 L 228.87 33.548 C 224.467 35.183 220.047 36 215.608 36 C 211.169 36 207.963 35.11 205.991 33.33 C 204.03 31.551 203.05 28.809 203.05 25.105 C 203.05 23.543 203.302 21.237 203.808 18.186 C 204.89 11.866 206.803 7.308 209.545 4.513 C 212.288 1.716 216.835 0.318 223.186 0.318 C 224.521 0.318 226.223 0.463 228.292 0.754 C 230.373 1.044 231.901 1.371 232.875 1.734 L 229.898 10.069 C 227.192 9.561 224.707 9.306 222.446 9.306 C 220.196 9.306 218.585 9.488 217.611 9.851 C 216.636 10.214 216.059 10.941 215.879 12.031 L 213.226 27.447 L 216.636 27.447 C 217.863 27.447 218.771 27.315 219.361 27.047 C 219.962 26.769 220.353 26.139 220.534 25.159 Z M 232.875 34.583 L 235.907 25.595 C 238.938 26.43 241.717 26.848 244.243 26.848 C 246.769 26.848 248.808 26.739 250.359 26.521 L 250.792 23.797 L 246.3 23.362 C 242.871 23.035 240.441 22.254 239.01 21.019 C 237.59 19.784 236.881 18.041 236.881 15.789 C 236.881 14.808 236.989 13.719 237.206 12.521 C 238.036 7.872 239.539 4.676 241.717 2.933 C 243.905 1.19 247.292 0.318 251.875 0.318 C 256.458 0.318 260.5 0.772 264 1.68 L 261.185 10.396 C 258.046 9.851 255.52 9.579 253.607 9.579 C 251.694 9.579 250.071 9.67 248.735 9.851 L 248.302 12.521 L 251.929 12.902 C 255.61 13.302 258.226 14.185 259.778 15.553 C 261.33 16.91 262.105 18.731 262.105 21.019 C 262.105 23.343 261.6 25.74 260.59 28.209 C 260.085 29.481 259.531 30.546 258.93 31.406 C 258.34 32.253 257.582 32.973 256.656 33.567 C 255.742 34.171 254.906 34.625 254.148 34.928 C 253.391 35.242 252.434 35.474 251.28 35.619 C 249.583 35.872 247.508 36 245.055 36 C 240.58 36 236.52 35.528 232.875 34.583 Z" style="white-space: pre; fill: rgb(255, 255, 255);"/>
  <path d="M 26.074 24.253 L 26.074 21.106 L 23.236 20.057 C 22.989 19.095 22.659 18.19 22.168 17.354 L 22.197 17.35 L 23.546 14.519 L 21.342 12.295 L 18.532 13.643 L 18.529 13.647 C 17.7 13.153 16.8 12.84 15.846 12.591 L 14.804 9.706 L 11.676 9.706 L 10.635 12.591 C 9.678 12.84 8.778 13.187 7.95 13.681 L 7.944 13.659 L 5.132 12.302 L 2.921 14.523 L 4.26 17.352 L 4.264 17.356 C 3.773 18.19 3.287 19.097 3.04 20.059 L 0 21.106 L 0 24.253 L 3.04 25.302 C 3.287 26.263 3.721 27.171 4.211 28.004 L 4.233 28.008 L 2.909 30.839 L 5.126 33.065 L 7.943 31.718 L 7.948 31.715 C 8.776 32.207 9.678 32.668 10.633 32.916 L 11.676 35.949 L 14.804 35.949 L 15.846 32.916 C 16.802 32.668 17.702 32.246 18.53 31.752 L 18.536 31.738 L 21.349 33.074 L 23.559 30.844 L 22.22 28.01 L 22.217 28.006 C 22.707 27.171 22.989 26.263 23.236 25.302 L 26.074 24.253 Z M 13.24 27.925 C 10.362 27.925 8.027 25.577 8.027 22.68 C 8.027 19.784 10.362 17.434 13.24 17.434 C 16.12 17.434 18.453 19.784 18.453 22.68 C 18.453 25.577 16.12 27.925 13.24 27.925 Z" style="fill: rgb(255, 255, 255);"/>
  <path d="M 36.07 5.237 L 35.386 3.576 L 33.616 3.664 C 33.277 3.21 32.884 2.815 32.444 2.483 L 32.445 2.479 L 32.539 0.69 L 30.888 0 L 29.696 1.331 L 29.696 1.334 C 29.151 1.257 28.591 1.251 28.034 1.331 L 26.841 0 L 25.19 0.688 L 25.282 2.477 C 24.833 2.818 24.441 3.219 24.109 3.662 L 24.108 3.661 L 22.329 3.569 L 21.647 5.229 L 22.967 6.428 L 22.971 6.43 C 22.908 6.944 22.881 7.545 22.96 8.107 L 21.628 9.31 L 22.312 10.972 L 24.099 10.875 C 24.438 11.329 24.84 11.722 25.28 12.054 L 25.28 12.058 L 25.19 13.846 L 27 14.534 L 28.35 13.203 L 28.35 13.2 C 28.7 13.265 29.297 13.281 29.854 13.203 L 30.968 14.534 L 32.579 13.846 L 32.467 12.058 C 32.918 11.717 33.301 11.315 33.631 10.872 L 33.629 10.873 L 35.404 10.965 L 36.087 9.303 L 34.764 8.105 L 34.76 8.103 C 34.838 7.554 34.834 6.994 34.757 6.434 L 36.07 5.237 Z M 30.004 10.037 C 28.485 10.668 26.744 9.943 26.114 8.413 C 25.484 6.884 26.206 5.132 27.725 4.498 C 29.246 3.865 30.987 4.59 31.617 6.12 C 32.245 7.651 31.523 9.403 30.004 10.037 Z" style="fill: rgb(255, 255, 255);"/>
</svg>
